X: 3622
T: Bill Malley's
R: barndance
M: 4/4
K: Amixolydian
|:e2ed cAA2|ABce d2cd|e2ed cAAf|gage d2cd:|
|:=c2gc acgc|=c2gc BAGB|=c2gc acg2|gage d2cd:|

